X:1
T:Kindness Itself
C:Muriel A. Johnstone
B:"To Dance To 1" 1998 Scotscores, p.11
N:"Written as part of a commission from the Cincinnati Branch to honour their teacher Nora Kindness."
B:The Whiteaddr Collection
S:Anselm Lingnau <anselm:strathspey.org> strathspey 2009-1-15
R:reel
M:4/4
L:1/8
K:Gm
|: "Gm"DG^FG BG^FG | "F"AFcF "Bb"dF"F/A"cF \
|1 "Gm"BAGA "Cm"Bcde | "D7"dgg^f "Gm"g2g2 \
:|2"Gm"BAGA "F"Bc"Eb"de | "D7"dgg^f "Gm"g2ga |]
|: "Gm"bgdB GABG | "F"Aff=e "F/C"f2ga \
|1 "Gm"bgdB GABG | "D"^Fdd^c "D7"d=e^fa \
:|2"Eb"geBG "D7"^FAdc | "Gm"B2G2 G2z2 |]
